X: 0583
M: 2/4
L: 1/16
K: G
|:\
|: g2 |\
dgBg dgBg | dgba gfed | eaca eaca | e2ag fedc |\
dgBg dgBg dgba gfed | ecdB cABG | D2GA G4 :|

